X:27
T:Reels 7 - Bonny Breast Knot*
T:Three Around Three
M:2/2
L:1/8
K:G
"G"d2BA G2G2|"D"A2BA "G"G2D2|"C"EDEF G2AB|"Am"c2B2"D"B2A2|
"G"d2BA G2G2|"D"A2BA "G"G2D2|"C"EDEF G2Ac|"D"B2G2G4:|
"G"d2ef "Em"gfed|"C"e2e2"Am"efge|"G"d2B2B2AG|"D"FGAB A4|
"G"d2ef "Em"gfed|"C"e2e2e2"G/B"d2|"C"ef g2 "D"fg a2|"G"g4g4:|
T:Argiers
K:D
"G"defg "Em"e2d2|"A"c2A2 A4|a2e2 a3g|"D"f2d2 d4|
"G"defg "Em"e2d2|"A"c3d e2A2|"G"Bcd2 "A"cdef|"D"d8||
"A"cde2 cde2|a2e2 a2e2|cde2 cde2|a2e2 a2e2|
a2gf "G"g2ag|"D"f2ed "A"e3A|"G"Bcde "A"cdef|"D"d8||
%%newpage

